imgs/mulher.svg

<svg class="svg" xmlns="http://www.w3.org/2000/svg" viewBox="0 0 7.2 9.6" style="enable-background:new 0 0 7.2 9.6" fill="#c4bbbb63" xml:space="preserve"><path d="M2.5 9.1v-.5a1 1 0 0 0-.5-.9c-.3-.1-.6-.4-.8-.7 0 .5 0 1 .2 1.4C.8 7.6.7 6.7 1 5.8c-.3.2-.4.5-.8.3L.3 6c.7-.4.9-1.1.9-1.8L1 2.7v-.9c.1-.5.3-.7.8-.7l.1-.1A3 3 0 0 1 3.5.2H4l.9.3c.4.2.6.5.8.8.2.9.3 1.6.2 2.4l-.1.7c0 .6.1 1.2.5 1.6.4.6.4 1.3.3 2-.1.5-.2 1 .1 1.4h-.1l-.1-.2c-.3-.4-.3-.9-.2-1.4.1-.4.1-.6-.1-.9-.1.4 0 .9-.4 1.3l-.1-.5c-.4.3-.5.4 0 1.1l-.8-.5-.1.7h-.1l-.1-.3.1-.9-.1-.7h-.1c-.2 0-.3-.1-.4-.3-.2-.6-.1-1.1.4-1.6l.5-.6c-.1-.2-.3-.3-.6-.3s-.5-.1-.8-.3c-.5-.3-.8-.8-1-1.3-.1.7 0 1.3.2 2L2.2 4h-.1l-.1.7c0 .2 0 .4.2.6l.6.5c.3.2.4.4.2.7.1.1 0 .3-.1.4-.1.1-.1.2 0 .4.2.7 0 1.2-.4 1.8.1 0 0 0 0 0z"/></svg>

<?xml version="1.0" encoding="utf-8"?>
<svg version="1.1" class="svg" xmlns="http://www.w3.org/2000/svg" xmlns:xlink="http://www.w3.org/1999/xlink" x="0px" y="0px"
	 viewBox="0 0 7.2 9.6" style="enable-background:new 0 0 7.2 9.6;" fill="#c4bbbb63" xml:space="preserve">
<path d="M2.5,9.1c0-0.2,0-0.3,0-0.5c0-0.4-0.2-0.7-0.5-0.9C1.7,7.6,1.4,7.3,1.2,7c0,0.5,0,1,0.2,1.4C0.8,7.6,0.7,6.7,1,5.8
	C0.7,6,0.6,6.3,0.2,6.1c0,0,0-0.1,0.1-0.1C1,5.6,1.2,4.9,1.2,4.2c0-0.5-0.2-1-0.2-1.5c0-0.3,0-0.6,0-0.9c0.1-0.5,0.3-0.7,0.8-0.7
	c0,0,0.1,0,0.1-0.1c0.4-0.4,1-0.7,1.6-0.8c0.2,0,0.3,0,0.5,0c0.3,0.1,0.6,0.2,0.9,0.3c0.4,0.2,0.6,0.5,0.8,0.8
	C5.9,2.2,6,2.9,5.9,3.7c0,0.2-0.1,0.5-0.1,0.7C5.8,5,5.9,5.6,6.3,6C6.7,6.6,6.7,7.3,6.6,8C6.5,8.5,6.4,9,6.7,9.4c0,0,0,0-0.1,0
	C6.6,9.4,6.5,9.3,6.5,9.2C6.2,8.8,6.2,8.3,6.3,7.8c0.1-0.4,0.1-0.6-0.1-0.9c-0.1,0.4,0,0.9-0.4,1.3C5.8,8,5.8,7.9,5.7,7.7
	C5.3,8,5.2,8.1,5.7,8.8C5.4,8.7,5.2,8.6,4.9,8.3c0,0.3-0.1,0.5-0.1,0.7c0,0,0,0-0.1,0c0-0.1-0.1-0.2-0.1-0.3c0-0.3,0.1-0.6,0.1-0.9
	c0-0.2-0.1-0.4-0.1-0.7c0,0,0,0-0.1,0C4.3,7.1,4.2,7,4.1,6.8C3.9,6.2,4,5.7,4.5,5.2C4.7,5,4.8,4.8,5,4.6C4.9,4.4,4.7,4.3,4.4,4.3
	C4.1,4.3,3.9,4.2,3.6,4c-0.5-0.3-0.8-0.8-1-1.3c-0.1,0.7,0,1.3,0.2,2C2.6,4.5,2.4,4.3,2.2,4c0,0,0,0-0.1,0c0,0.2,0,0.5-0.1,0.7
	c0,0.2,0,0.4,0.2,0.6c0.2,0.1,0.4,0.3,0.6,0.5c0.3,0.2,0.4,0.4,0.2,0.7C3.1,6.6,3,6.8,2.9,6.9c-0.1,0.1-0.1,0.2,0,0.4
	C3.1,8,2.9,8.5,2.5,9.1C2.6,9.1,2.5,9.1,2.5,9.1z"/>
</svg>
